X:1     
T:As I was going to Banbury
B:Cyril Winn,A Selection of some less known Folk-Songs, Vol 2, Novello
Z:R Vaughan Williams
F:http://www.folkinfo.org/songs
M:6/8     
L:1/8    
K:G
D |G2 G E F G |A2 F D2 z |
w:As I was go-ing to Ban-bu-ry, 
B3 G3 |B d c B2 
w:Ri fol lat-i-tee O, 
A |B2 A B B c |d2 B G2 
w:As I was go-ing to Ban-bu-ry,
G |G F G E F G |A2 F D 
w:I saw a fine cod-*lin ap-ple tree, 
E F |G3 E3 |F A F G2 |]
w:With a ri fol lat-i-tee O. 